svgs/twinkly.svg

<svg width="192" height="192" viewBox="0 0 192 192" fill="none" xmlns="http://www.w3.org/2000/svg">
<path d="M103.579 142.265C102.773 143.172 101.866 143.978 101.06 144.885C92.8971 154.459 82.9208 161.815 72.1383 167.962C63.069 173.101 52.0849 168.063 49.868 157.986C46.5425 143.273 46.341 128.661 49.868 113.949C50.1703 112.639 49.5657 112.135 48.7595 111.429C40.2947 104.678 33.2408 96.6161 27.0937 87.7482C26.3883 86.7405 25.7837 85.632 25.1791 84.6243C21.249 77.5704 22.6598 71.0203 29.2099 66.284C36.9693 60.6409 45.8371 58.1216 55.3096 57.8193C72.8437 57.3154 87.0524 64.4701 98.8426 77.0665C99.3465 77.6711 99.3465 78.7796 99.548 79.6866C98.6411 79.6866 97.5326 80.0896 96.8272 79.6866C89.0679 76.2603 81.2077 73.4388 72.6422 72.9349C65.4875 72.5318 58.635 73.338 52.0849 76.5627C51.4803 76.865 50.7749 77.1673 49.7672 77.7719C53.3949 80.4927 56.7204 83.2135 60.2474 85.632C64.2782 88.3529 68.5106 90.6706 72.6422 93.2906C75.0607 94.8022 77.3784 96.4145 79.4946 98.2284C82.6185 100.949 83.4247 104.476 82.417 108.507C81.1069 113.848 79.8977 119.189 78.6884 124.63C78.5877 125.235 78.5877 125.94 78.4869 127.049C79.5954 126.343 80.4015 125.94 81.1069 125.437C85.4401 121.809 89.7732 118.08 93.9049 114.352C100.354 108.507 107.207 108.709 113.555 114.755C119.4 120.297 125.547 125.437 131.593 130.677C132.5 131.483 133.609 131.987 135.12 132.894C135.12 131.483 135.12 130.576 134.919 129.77C132.903 122.111 130.888 114.453 128.671 106.895C127.26 102.158 127.965 99.3369 131.694 96.0114C139.05 89.4613 146.507 83.012 152.251 74.8496C154.367 71.8264 154.065 70.5164 150.437 69.7102C140.864 67.594 131.392 67.4933 122.221 71.5241C117.384 73.6403 114.059 71.7257 113.354 66.4856C111.842 54.7961 107.912 44.0137 100.455 34.642C99.6488 33.6342 98.8426 32.8281 98.0365 31.9211C97.6334 31.4173 97.2303 30.9134 96.928 30.4096C96.4241 30.7119 96.2226 30.8127 96.1218 30.9134C90.781 38.1689 86.5486 45.9283 85.2386 55.0985C85.1378 56.0054 85.037 57.0131 84.6339 57.8193C84.3316 58.4239 83.4247 58.827 82.8201 59.3308C82.5177 58.7262 81.9131 58.1216 81.9131 57.4162C81.9131 52.0753 82.8201 46.936 84.9362 42.1998C87.7578 35.8512 91.184 29.805 94.3079 23.5572C95.3156 21.6425 96.4241 21.6425 98.1372 22.751C105.494 27.588 111.237 34.0373 115.47 41.5952C118.392 46.8352 120.71 52.3776 123.229 57.6177C127.562 56.7108 132.097 55.5015 136.732 54.8969C143.182 54.0907 149.631 53.99 155.98 55.5015C167.266 58.2224 172.405 67.2917 168.878 78.3765C166.762 85.1282 162.53 90.5698 158.096 95.8099C155.677 98.7323 153.259 101.554 150.639 104.375C149.631 105.484 149.631 106.29 150.135 107.6C153.864 116.871 157.189 126.243 157.189 136.421C157.189 140.955 156.987 145.389 156.484 149.924C155.677 156.676 149.933 161.21 143.383 159.799C132.399 157.381 121.617 153.955 111.842 148.11C108.92 146.397 106.3 144.18 103.478 142.064L103.579 142.265Z" stroke="black" stroke-width="12" stroke-linecap="round" stroke-linejoin="round"/>
</svg>

<svg width="192" height="192" viewBox="0 0 192 192" fill="none" xmlns="http://www.w3.org/2000/svg"><path d="M103.579 142.265c-.806.907-1.713 1.713-2.519 2.62-8.163 9.574-18.14 16.93-28.922 23.077-9.069 5.139-20.053.101-22.27-9.976-3.326-14.713-3.527-29.325 0-44.037.302-1.31-.302-1.814-1.108-2.52-8.465-6.751-15.52-14.813-21.666-23.68-.706-1.008-1.31-2.117-1.915-3.125-3.93-7.054-2.52-13.604 4.03-18.34 7.76-5.643 16.628-8.162 26.1-8.465 17.535-.504 31.743 6.651 43.534 19.248.504.604.504 1.713.705 2.62-.907 0-2.015.403-2.72 0-7.76-3.427-15.62-6.248-24.186-6.752-7.154-.403-14.007.403-20.557 3.628-.605.302-1.31.604-2.318 1.209 3.628 2.72 6.953 5.441 10.48 7.86 4.031 2.72 8.264 5.039 12.395 7.659 2.419 1.511 4.736 3.124 6.853 4.937 3.123 2.721 3.93 6.248 2.922 10.279-1.31 5.341-2.52 10.682-3.729 16.123-.1.605-.1 1.31-.201 2.419 1.108-.706 1.915-1.109 2.62-1.612 4.333-3.628 8.666-7.357 12.798-11.085 6.449-5.845 13.302-5.643 19.65.403 5.845 5.542 11.992 10.682 18.038 15.922.907.806 2.016 1.31 3.527 2.217 0-1.411 0-2.318-.201-3.124-2.016-7.659-4.031-15.317-6.248-22.875-1.411-4.737-.706-7.558 3.023-10.884 7.356-6.55 14.813-12.999 20.557-21.161 2.116-3.024 1.814-4.334-1.814-5.14-9.573-2.116-19.045-2.217-28.216 1.814-4.837 2.116-8.162.202-8.867-5.038-1.512-11.69-5.442-22.472-12.899-31.844-.806-1.008-1.612-1.814-2.418-2.72-.404-.505-.807-1.009-1.109-1.512-.504.302-.705.403-.806.503C90.78 38.17 86.549 45.928 85.239 55.1c-.101.906-.202 1.914-.605 2.72-.302.605-1.21 1.008-1.814 1.512-.302-.605-.907-1.21-.907-1.915 0-5.34.907-10.48 3.023-15.216 2.822-6.349 6.248-12.395 9.372-18.643 1.008-1.915 2.116-1.915 3.83-.806 7.356 4.837 13.099 11.286 17.332 18.844 2.922 5.24 5.24 10.783 7.759 16.023 4.333-.907 8.868-2.117 13.503-2.721 6.45-.806 12.899-.907 19.248.605 11.286 2.72 16.425 11.79 12.898 22.874-2.116 6.752-6.348 12.194-10.782 17.434-2.419 2.922-4.837 5.744-7.457 8.565-1.008 1.109-1.008 1.915-.504 3.225 3.729 9.271 7.054 18.643 7.054 28.821 0 4.534-.202 8.968-.705 13.503-.807 6.752-6.551 11.286-13.101 9.875-10.984-2.418-21.766-5.844-31.541-11.689-2.922-1.713-5.542-3.93-8.364-6.046l.101.201Z" stroke="#000" stroke-width="12" stroke-linecap="round" stroke-linejoin="round"/></svg>
